X: 22
T:General Monk's March, Bledington 2
M:2/2
L:1/8
S:Hathaway
A:Bledington
P:A(AB)4A
K:G
P:A
|:(3DEF|G2G>G  A2A>A|B>dg>e d2d>c|B>dB>G A>cA>F|G2 G2  G2:|
P:B
|:B>c d>ed>c B2A>B|c>dc>B A2B>c|d>ed>c B2 A>B|c>de>c A2(3DEF|
G2 G>G A2A>A|B>dg>e d2d>c|B>dB>G A>cA>F|G2 G2  G2:|

